style-guide/assets/wds-icons-upvote-small.svg

<svg viewBox="0 0 18 18" xmlns="http://www.w3.org/2000/svg">
  <path d="M9 14a1 1 0 0 1-1-1V7.414L6.707 8.707a.999.999 0 1 1-1.414-1.414l3-3A.998.998 0 0 1 8.997 4h.006a.988.988 0 0 1 .704.293l3 3a.999.999 0 1 1-1.414 1.414L10 7.414V13a1 1 0 0 1-1 1M9 2C5.14 2 2 5.14 2 9c0 3.859 3.14 7 7 7s7-3.141 7-7c0-3.86-3.14-7-7-7m0 16c-4.962 0-9-4.037-9-9 0-4.962 4.038-9 9-9s9 4.038 9 9c0 4.963-4.038 9-9 9" fill-rule="evenodd"/>
</svg>

<svg xmlns="http://www.w3.org/2000/svg" xmlns:xlink="http://www.w3.org/1999/xlink" width="18" height="18" viewBox="0 0 18 18">
  <defs>
    <path id="upvote-a" d="M9,14 C8.448,14 8,13.553 8,13 L8,7.414 L6.707,8.707 C6.316,9.098 5.684,9.098 5.293,8.707 C4.902,8.316 4.902,7.684 5.293,7.293 L8.293,4.293 C8.389,4.197 8.5,4.124 8.619,4.075 C8.735,4.027 8.863,4 8.997,4 L9.003,4 C9.137,4 9.265,4.027 9.381,4.075 C9.5,4.124 9.611,4.197 9.707,4.293 L12.707,7.293 C13.098,7.684 13.098,8.316 12.707,8.707 C12.316,9.098 11.684,9.098 11.293,8.707 L10,7.414 L10,13 C10,13.553 9.552,14 9,14 M9,2 C5.14,2 2,5.14 2,9 C2,12.859 5.14,16 9,16 C12.86,16 16,12.859 16,9 C16,5.14 12.86,2 9,2 M9,18 C4.038,18 0,13.963 0,9 C0,4.038 4.038,0 9,0 C13.962,0 18,4.038 18,9 C18,13.963 13.962,18 9,18"/>
  </defs>
  <use fill-rule="evenodd" xlink:href="#upvote-a"/>
</svg>
